X: 121
T: Miss Maxwell's Reel
C: Abraham Mackintosh
R: reel
M: C|
L: 1/8
Z: 2011 John Chambers <jc:trillian.mit.edu>
B: Abraham Mackintosh "A Collection of Strathspeys, Reels, Jigs &c.", Newcastle, after 1797, p.12
F: http://imslp.info/files/imglnks/usimg/a/a8/IMSLP80796-PMLP164326-Abraham_Mackintosh_coll.pdf
K: G
V: 1
g2ba g2fe | abag fd de/f/ | {a}g2fe {e}d2cB | cAdc BGGd |
gbab gafg | eaag fd de/f/ | gbfa egd=f | ecAd BGG || B/c/ |
dBdg dg dB/c/ | dBGB cA AB/c/ | dBGB dgdB | cABG FA AB/c/ |
dBdg dg dB/c/ | dBGB cA AB/c/ | dgfe dbag | faef defd |]
V: 2 clef=bass middle=d
g2d2 e2^c2 | d2^c2 d2=c2 | B2c2 B2G2 | d2d2 g2G2 |
g2f2 e2d2 | c2^c2 d2=c2 | B2d2 e2B2 | c2d2 g2G || z |
G2G2 G2G2 | G2g2 d2d'c' | b2b2 g2g2 | f2g2 d2d'c' |
b2b2 g2g2 | G2G2 d2dc | B2c2 B2^c2 | d2A2 d2z2 |]

%%sep 2 1 500

